symbolic/32x32/apps/PosteRazor.svg

<svg xmlns="http://www.w3.org/2000/svg" width="32" height="32" version="1">
 <path style="opacity:0.2" d="M 5.1503906,8 C 4.5132906,8 4,8.5421295 4,9.2148438 V 11 H 2.875 2.5 2.125 C 1.5017501,11 1,11.524806 1,12.177734 v 8.644532 C 1,21.475194 1.5017501,22 2.125,22 H 2.5 2.875 4 v 1.785156 C 4,24.457871 4.5132906,25 5.1503906,25 H 25.849609 C 26.486709,25 27,24.457871 27,23.785156 V 22 h 1.125 0.375 0.375 C 29.49825,22 30,21.475194 30,20.822266 V 12.177734 C 30,11.524806 29.49825,11 28.875,11 H 28.5 28.125 27 V 9.2148438 C 27,8.5421295 26.486709,8 25.849609,8 Z"/>
 <path style="fill:#afafb1" d="M 28.875,10 C 29.49825,10 30,10.525644 30,11.178572 v 8.642857 C 30,20.474357 29.49825,21 28.875,21 H 28.5 28.125 27 V 19.821429 11.178572 10 h 1.125 0.375 z"/>
 <rect style="fill:#afafb1" width="23" height="17" x="4" y="7" rx="1.15" ry="1.214"/>
 <path style="opacity:0.1" d="m 15.5,12 c -1.904706,0.0027 -3.601427,1.204223 -4.236328,3 H 10.298828 L 9.75,14.21875 9.0917969,13.28125 C 8.9636331,13.098081 8.7214679,12.989446 8.4648438,13 8.2333352,13.010097 8.0238056,13.115965 7.9082031,13.28125 L 7.25,14.21875 6.7011719,15 H 5 V 14 C 5,13.446 4.554,13 4,13 3.446,13 3,13.446 3,14 v 1 1 1 1 1 c 0,0.554 0.446,1 1,1 0.554,0 1,-0.446 1,-1 V 18 H 6.7011719 L 7.25,18.78125 7.9082031,19.71875 C 8.0238056,19.884035 8.2333352,19.989903 8.4648438,20 c 0.2566241,0.01055 0.4987893,-0.09808 0.6269531,-0.28125 L 9.75,18.78125 10.298828,18 h 0.964844 c 0.634901,1.795777 2.331622,2.9973 4.236328,3 1.904706,-0.0027 3.601427,-1.204223 4.236328,-3 h 0.964844 l 0.548828,0.78125 0.658203,0.9375 c 0.115603,0.165285 0.325132,0.27115 0.556641,0.28125 0.256624,0.01055 0.498789,-0.09808 0.626953,-0.28125 L 23.75,18.78125 24.298828,18 H 26 v 1 c 0,0.554 0.446,1 1,1 0.554,0 1,-0.446 1,-1 v -1 -1 -1 -1 -1 c 0,-0.554 -0.446,-1 -1,-1 -0.554,0 -1,0.446 -1,1 v 1 H 24.298828 L 23.75,14.21875 23.091797,13.28125 C 22.963633,13.098081 22.721468,12.989446 22.464844,13 c -0.231509,0.0101 -0.441038,0.115965 -0.556641,0.28125 L 21.25,14.21875 20.701172,15 H 19.736328 C 19.101427,13.204223 17.404706,12.002673 15.5,12 Z"/>
 <path style="fill:#afafb1" d="m 2.1250001,10 c -0.6232499,0 -1.125,0.525644 -1.125,1.178572 v 8.642857 c 0,0.652928 0.5017501,1.178571 1.125,1.178571 h 0.3750001 0.3749999 1.125 V 19.821429 11.178572 10 h -1.125 -0.3749999 z"/>
 <path style="fill:#3f3f3f" d="M 15.5 11 C 13.595294 11.0027 11.898573 12.204223 11.263672 14 L 10.298828 14 L 9.75 13.21875 L 9.0917969 12.28125 C 8.9636331 12.098081 8.7214679 11.989446 8.4648438 12 C 8.2333352 12.010097 8.0238056 12.115965 7.9082031 12.28125 L 7.25 13.21875 L 6.7011719 14 L 5 14 L 5 13 C 5 12.446 4.554 12 4 12 C 3.446 12 3 12.446 3 13 L 3 14 L 3 15 L 3 16 L 3 17 L 3 18 C 3 18.554 3.446 19 4 19 C 4.554 19 5 18.554 5 18 L 5 17 L 6.7011719 17 L 7.25 17.78125 L 7.9082031 18.71875 C 8.0238056 18.884035 8.2333352 18.989903 8.4648438 19 C 8.7214679 19.010554 8.9636331 18.901919 9.0917969 18.71875 L 9.75 17.78125 L 10.298828 17 L 11.263672 17 C 11.898573 18.795777 13.595294 19.9973 15.5 20 C 17.404706 19.997327 19.101427 18.795777 19.736328 17 L 20.701172 17 L 21.25 17.78125 L 21.908203 18.71875 C 22.023806 18.884035 22.233335 18.9899 22.464844 19 C 22.721468 19.010554 22.963633 18.901919 23.091797 18.71875 L 23.75 17.78125 L 24.298828 17 L 26 17 L 26 18 C 26 18.554 26.446 19 27 19 C 27.554 19 28 18.554 28 18 L 28 17 L 28 16 L 28 15 L 28 14 L 28 13 C 28 12.446 27.554 12 27 12 C 26.446 12 26 12.446 26 13 L 26 14 L 24.298828 14 L 23.75 13.21875 L 23.091797 12.28125 C 22.963633 12.098081 22.721468 11.989446 22.464844 12 C 22.233335 12.0101 22.023806 12.115965 21.908203 12.28125 L 21.25 13.21875 L 20.701172 14 L 19.736328 14 C 19.101427 12.204223 17.404706 11.002673 15.5 11 z"/>
 <path style="opacity:0.2" d="M 5.1503906 7 C 4.5132906 7 4 7.5421295 4 8.2148438 L 4 9 L 27 9 L 27 8.2148438 C 27 7.5421295 26.486709 7 25.849609 7 L 5.1503906 7 z M 4 22 L 4 22.785156 C 4 23.457871 4.5132906 24 5.1503906 24 L 25.849609 24 C 26.486709 24 27 23.457871 27 22.785156 L 27 22 L 4 22 z"/>
 <path style="opacity:0.2;fill:#ffffff" d="M 2.125 10 C 1.5017501 10 1 10.524806 1 11.177734 L 1 12.177734 C 1 11.524806 1.5017501 11 2.125 11 L 2.5 11 L 2.875 11 L 4 11 L 4 10 L 2.875 10 L 2.5 10 L 2.125 10 z M 27 10 L 27 11 L 28.125 11 L 28.5 11 L 28.875 11 C 29.49825 11 30 11.524806 30 12.177734 L 30 11.177734 C 30 10.524806 29.49825 10 28.875 10 L 28.5 10 L 28.125 10 L 27 10 z"/>
</svg>

<svg xmlns="http://www.w3.org/2000/svg" width="32" height="32" version="1"><path style="opacity:.2" d="M5.15 8C4.513 8 4 8.542 4 9.215V11H2.125C1.502 11 1 11.525 1 12.178v8.644C1 21.475 1.502 22 2.125 22H4v1.785C4 24.458 4.513 25 5.15 25h20.7c.637 0 1.15-.542 1.15-1.215V22h1.875c.623 0 1.125-.525 1.125-1.178v-8.644c0-.653-.502-1.178-1.125-1.178H27V9.215C27 8.542 26.487 8 25.85 8z"/><path style="fill:#afafb1" d="M28.875 10c.623 0 1.125.526 1.125 1.179v8.642c0 .653-.502 1.179-1.125 1.179H27V10h1.5z"/><rect style="fill:#afafb1" width="23" height="17" x="4" y="7" rx="1.15" ry="1.214"/><path style="opacity:.1" d="M15.5 12a4.5 4.5 0 0 0-4.236 3h-.965l-.549-.781-.658-.938c-.128-.183-.37-.292-.627-.281a.714.714 0 0 0-.557.281l-.658.938-.549.781H5v-1c0-.554-.446-1-1-1s-1 .446-1 1v5c0 .554.446 1 1 1s1-.446 1-1v-1h1.701l.549.781.658.938a.714.714 0 0 0 .557.281c.256.01.499-.098.627-.281l.658-.938.549-.781h.965a4.5 4.5 0 0 0 4.236 3 4.5 4.5 0 0 0 4.236-3h.965l.549.781.658.938a.714.714 0 0 0 .557.281c.256.01.499-.098.627-.281l.658-.938.549-.781H26v1c0 .554.446 1 1 1s1-.446 1-1v-5c0-.554-.446-1-1-1s-1 .446-1 1v1h-1.701l-.549-.781-.658-.938c-.128-.183-.37-.292-.627-.281a.714.714 0 0 0-.557.281l-.658.938-.549.781h-.965a4.5 4.5 0 0 0-4.236-3z"/><path style="fill:#afafb1" d="M2.125 10C1.502 10 1 10.526 1 11.179v8.642C1 20.474 1.502 21 2.125 21H4V10H2.5z"/><path style="fill:#3f3f3f" d="M15.5 11a4.5 4.5 0 0 0-4.236 3h-.965l-.549-.781-.658-.938c-.128-.183-.37-.292-.627-.281a.714.714 0 0 0-.557.281l-.658.938-.549.781H5v-1c0-.554-.446-1-1-1s-1 .446-1 1v5c0 .554.446 1 1 1s1-.446 1-1v-1h1.701l.549.781.658.938a.714.714 0 0 0 .557.281c.256.01.499-.098.627-.281l.658-.938.549-.781h.965a4.5 4.5 0 0 0 4.236 3 4.5 4.5 0 0 0 4.236-3h.965l.549.781.658.938a.714.714 0 0 0 .557.281c.256.01.499-.098.627-.281l.658-.938.549-.781H26v1c0 .554.446 1 1 1s1-.446 1-1v-5c0-.554-.446-1-1-1s-1 .446-1 1v1h-1.701l-.549-.781-.658-.938c-.128-.183-.37-.292-.627-.281a.714.714 0 0 0-.557.281l-.658.938-.549.781h-.965a4.5 4.5 0 0 0-4.236-3z"/><path style="opacity:.2" d="M5.15 7C4.513 7 4 7.542 4 8.215V9h23v-.785C27 7.542 26.487 7 25.85 7H5.15zM4 22v.785C4 23.458 4.513 24 5.15 24h20.7c.637 0 1.15-.542 1.15-1.215V22H4z"/><path style="opacity:.2;fill:#fff" d="M2.125 10C1.502 10 1 10.525 1 11.178v1C1 11.525 1.502 11 2.125 11H4v-1H2.125zM27 10v1h1.875c.623 0 1.125.525 1.125 1.178v-1c0-.653-.502-1.178-1.125-1.178H27z"/></svg>
